X: 7732
T: Colonel McBain
R: reel
M: 4/4
K: Edorian
|:F|GEBE GEBE|FDAD FDAD|GEBE GEBE|AGFG ~E3F|
GEBE GEBG|ABAG FA~A2|GFEF GBdB|AGFG ~E3:|
|:F|G2GF GBdB|ABAG FA~A2|Beed efgf|fedf e2(3Bcd|
efed BcdB|ABAG FA~A2|GFEF GBdB|AGFG ~E3:|

